assets/svg/star.svg

<svg fill="none" height="20" viewBox="0 0 20 20" width="20" xmlns="http://www.w3.org/2000/svg" xmlns:xlink="http://www.w3.org/1999/xlink"><clipPath id="a"><path d="m0 0h20v20h-20z"/></clipPath><g clip-path="url(#a)"><path d="m0 0h20v20h-20z" fill="#fff"/><path clip-rule="evenodd" d="m9.18489 1.50666-2.59752 5.26228-5.808847.84905c-.7453032.10894-1.04235 1.02507-.502773 1.55062l4.2025 4.09319-.9918 5.7827c-.12736.7427.65215 1.3089 1.31902.9582l5.19453-2.7317 5.1945 2.7317c.6669.3507 1.4464-.2155 1.319-.9582l-.9918-5.7827 4.2025-4.09319c.5396-.52555.2426-1.44168-.5027-1.55062l-5.8089-.84905-2.5975-5.26228c-.3334-.675545-1.29675-.675545-1.63021 0zm-1.86224 6.99213c.29575-.04323.55135-.22908.68365-.4971l1.9937-4.03902 1.9937 4.03902c.1323.26802.3879.45387.6836.4971l4.4598.65186-3.2263 3.14245c-.2144.2088-.3123.5098-.2617.8048l.7612 4.4383-3.9872-2.0968c-.2649-.1393-.58133-.1393-.8462 0l-3.98721 2.0968.76122-4.4383c.0506-.295-.04727-.596-.26167-.8048l-3.22634-3.14245z" fill="#102b44" fill-rule="evenodd"/></g></svg>

<svg width="20" height="20" viewBox="0 0 20 20" fill="none" xmlns="http://www.w3.org/2000/svg">
<g clip-path="url(#clip0)">
<rect width="20" height="20" fill="white"/>
<path fill-rule="evenodd" clip-rule="evenodd" d="M9.18489 1.50666L6.58737 6.76894L0.778523 7.61799C0.0332198 7.72693 -0.263827 8.64306 0.27575 9.16861L4.47825 13.2618L3.48645 19.0445C3.35909 19.7872 4.1386 20.3534 4.80547 20.0027L10 17.271L15.1945 20.0027C15.8614 20.3534 16.6409 19.7872 16.5135 19.0445L15.5217 13.2618L19.7242 9.16861C20.2638 8.64306 19.9668 7.72693 19.2215 7.61799L13.4126 6.76894L10.8151 1.50666C10.4817 0.831115 9.51835 0.831115 9.18489 1.50666ZM7.32265 8.49879C7.6184 8.45556 7.874 8.26971 8.0063 8.00169L10 3.96267L11.9937 8.00169C12.126 8.26971 12.3816 8.45556 12.6773 8.49879L17.1371 9.15065L13.9108 12.2931C13.6964 12.5019 13.5985 12.8029 13.6491 13.0979L14.4103 17.5362L10.4231 15.4394C10.1582 15.3001 9.84177 15.3001 9.5769 15.4394L5.58969 17.5362L6.35091 13.0979C6.40151 12.8029 6.30364 12.5019 6.08924 12.2931L2.8629 9.15065L7.32265 8.49879Z" fill="#102B44"/>
</g>
<defs>
<clipPath id="clip0">
<rect width="20" height="20" fill="white"/>
</clipPath>
</defs>
</svg>
